X: 989
T: Tow row row
C: anon.
O: Ireland
B: Francis O'Neill: "The Dance Music of Ireland" (1907) no. 989
Z: Transcribed by Frank Nordberg - http://www.musicaviva.com
F: http://www.musicaviva.com/abc/tunes/ireland/oneill-1001/oneill-1001-098
9.abc
M: 2/4
L: 1/8
K: G
(3(d/e/f/)|gB BA/G/|FA AB/A/|Gg g/f/g/a/|bgg (3(d/e/f/)|gB BA/G/|FA FB/A/
|Gg g/f/g/a/|bgg:|
|:(B/c/)|dB d(e/f/)|gfed |dB d(e/f/)|gfed|e/e/e/e/ ed|gBBA|G/G/G/F/ GA|BG
ED|
G/G/G/F/ GB|A/A/A/A/ AB|Ggfe|dcBA|G/G/G/G/ GB|A/A/A/A/ AB|Gg(fa)|g3g:|
W:
W:
W: From Musica Viva - http://www.musicaviva.com
W: the Internet center for free sheet music downloads.


